packages/homepage/src/assets/icons/home-vue.svg

<svg fill="none" height="44" viewBox="0 0 44 44" width="44" xmlns="http://www.w3.org/2000/svg"><path clip-rule="evenodd" d="m21.8085 39.5844-19.8085-34.16961h7.82434l11.98416 20.50181 11.885-20.50181h7.9234z" fill="#fff" fill-rule="evenodd"/><path d="m21.8083 24.6009-11.98408-20.6009h7.32908l4.655 7.9234 4.556-7.9234h7.3291z" fill="#999"/></svg>

<svg width="44" height="44" viewBox="0 0 44 44" fill="none" xmlns="http://www.w3.org/2000/svg">
<path fill-rule="evenodd" clip-rule="evenodd" d="M21.8085 39.5844L2 5.41479H9.82434L21.8085 25.9166L33.6935 5.41479H41.6169L21.8085 39.5844Z" fill="white"/>
<path d="M21.8083 24.6009L9.82422 4H17.1533L21.8083 11.9234L26.3643 4H33.6934L21.8083 24.6009Z" fill="#999999"/>
</svg>
